X:1
T:[ID 1-107a]
T:[ID 1-107a]
T:Bezeichnung standardisiert: Tantz Tantz
T:Urheber unbekannt Datum in der hier transkribierten schriftlichen Quelle: vermutlich vor 1767
C:Urheber unbekannt
C:Datum in der hier transkribierten schriftlichen Quelle: vermutlich vor 1767
L:1/8
M:4/4
K:F
V:1 treble 
V:1
 fagf ed^ce | d^cde d2 E2 | F2 G2 A2 GF | GFED ^C2 A,2 | fagf ed^ce | d^cde defg | a2 gf ede^c | %7
 d6 :: ga | b2 ag a2 gf | efga c2 fe | d2 ba gfed | ^cdef A2 ga | b2 ag a2 gf | g2 fe f2 ed | %15
 ^c2 de fedc | d6 :| %17

